icons/folder-rust.svg

<svg xmlns="http://www.w3.org/2000/svg" viewBox="0 0 16 16">
<path id="folder" fill="#ff7043" d="m6.922 3.768-.644-.536A1 1 0 0 0 5.638 3H2a1 1 0 0 0-1 1v8a1 1 0 0 0 1 1h12a1 1 0 0 0 1-1V5a1 1 0 0 0-1-1H7.562a1 1 0 0 1-.64-.232" />
<path id="motive" fill="#ffccbc" d="m 15,11.999879 v 0.499945 a 0.50000001,0.49994512 0 0 1 -1,0 V 11.999879 A 1,0.99989028 0 0 0 13,10.99999 1.5,1.4998353 0 0 0 14.498,9.4201626 1.5575,1.5568291 0 0 0 12.915,8.0003187 H 7 V 9.0002086 H 8 V 12.99977 H 7 v 0.99989 h 4 v -0.99989 h -1 v -0.999891 h 2 c 0.41,0.409455 0.1485,1.153874 0.5895,1.684815 a 0.94500003,0.94489628 0 0 0 0.73,0.314966 H 16 V 11.999879 Z M 12,10.0001 H 10 V 9.0002086 h 2 A 0.50000058,0.4999457 0 0 1 12,10.0001" />
</svg>

<svg xmlns="http://www.w3.org/2000/svg" viewBox="0 0 16 16"><path id="folder" fill="#ff7043" d="m6.922 3.768-.644-.536A1 1 0 0 0 5.638 3H2a1 1 0 0 0-1 1v8a1 1 0 0 0 1 1h12a1 1 0 0 0 1-1V5a1 1 0 0 0-1-1H7.562a1 1 0 0 1-.64-.232"/><path id="motive" fill="#ffccbc" d="M15 12v.5a.5.5 0 0 1-1 0V12a1 1 0 0 0-1-1 1.5 1.5 0 0 0 1.498-1.58A1.558 1.557 0 0 0 12.915 8H7v1h1v4H7v1h4v-1h-1v-1h2c.41.41.149 1.154.59 1.685a.95.95 0 0 0 .73.315H16v-2Zm-3-2h-2V9h2a.5.5 0 0 1 0 1"/></svg>
